icons/mobile/24/svg/reader-view-fill-24.svg

<svg width="24" height="24" viewBox="0 0 24 24" fill="none" xmlns="http://www.w3.org/2000/svg">
<path fill-rule="evenodd" clip-rule="evenodd" d="M7.58887 2.39741C10.8039 1.87041 14.1412 1.86762 17.3682 2.38862C18.8939 2.63564 19.9998 3.93473 20 5.47748V18.4833C19.9998 20.0421 18.893 21.3544 17.3701 21.6044C15.7651 21.8664 14.126 21.9999 12.5 21.9999C10.857 21.9999 9.20291 21.8646 7.58691 21.5966C6.0881 21.3496 5.00017 20.0421 5 18.4863V5.47456C5.00019 3.9348 6.08911 2.64047 7.58887 2.39741ZM9.875 15.2499C9.392 15.2499 9 15.6419 9 16.1249C9 16.6079 9.392 16.9999 9.875 16.9999H13.125C13.608 16.9999 14 16.6079 14 16.1249C14 15.6419 13.608 15.2499 13.125 15.2499H9.875ZM9.875 11.1249C9.39175 11.1249 9 11.5167 9 11.9999C9 12.4832 9.39175 12.8749 9.875 12.8749H15.125C15.6082 12.8749 16 12.4832 16 11.9999C16 11.5167 15.6082 11.1249 15.125 11.1249H9.875ZM9.875 6.99995C9.392 6.99995 9 7.39195 9 7.87495C9 8.35795 9.392 8.74995 9.875 8.74995H15.125C15.608 8.74995 16 8.35795 16 7.87495C16 7.39195 15.608 6.99995 15.125 6.99995H9.875Z" fill="black"/>
</svg>

<!-- This Source Code Form is subject to the terms of the Mozilla Public
   - License, v. 2.0. If a copy of the MPL was not distributed with this
   - file, You can obtain one at http://mozilla.org/MPL/2.0/. -->
<svg xmlns="http://www.w3.org/2000/svg" width="24" height="24" fill="none" viewBox="0 0 24 24">
    <path fill="#000" fill-rule="evenodd" d="M7.589 2.397a30.6 30.6 0 0 1 9.78-.008A3.12 3.12 0 0 1 20 5.477v13.006a3.14 3.14 0 0 1-2.63 3.121 30.1 30.1 0 0 1-9.783-.008C6.088 21.35 5 20.043 5 18.487V5.475c0-1.54 1.09-2.835 2.589-3.078M9.875 15.25a.875.875 0 0 0 0 1.75h3.25a.875.875 0 0 0 0-1.75zm0-4.125a.875.875 0 0 0 0 1.75h5.25a.875.875 0 1 0 0-1.75zm0-4.125a.875.875 0 0 0 0 1.75h5.25a.875.875 0 0 0 0-1.75z" clip-rule="evenodd" />
</svg>
